img/agora-monde.svg

<?xml version="1.0" encoding="UTF-8" standalone="no"?>
<svg
   version="1.1"
   viewBox="0 0 178 84"
   id="svg8122"
   sodipodi:docname="agora-monde.svg"
   inkscape:version="1.2.2 (732a01da63, 2022-12-09)"
   xmlns:inkscape="http://www.inkscape.org/namespaces/inkscape"
   xmlns:sodipodi="http://sodipodi.sourceforge.net/DTD/sodipodi-0.dtd"
   xmlns="http://www.w3.org/2000/svg"
   xmlns:svg="http://www.w3.org/2000/svg">
  <defs
     id="defs8126" />
  <sodipodi:namedview
     id="namedview8124"
     pagecolor="#ffffff"
     bordercolor="#000000"
     borderopacity="0.25"
     inkscape:showpageshadow="2"
     inkscape:pageopacity="0.0"
     inkscape:pagecheckerboard="0"
     inkscape:deskcolor="#d1d1d1"
     showgrid="false"
     inkscape:zoom="4.8067371"
     inkscape:cx="68.133537"
     inkscape:cy="68.65364"
     inkscape:window-width="1920"
     inkscape:window-height="1017"
     inkscape:window-x="-8"
     inkscape:window-y="-8"
     inkscape:window-maximized="1"
     inkscape:current-layer="svg8122" />
  <path
     fill="#005192"
     d="m 16.55,37.31 -3.09,6.89 a 1.18,1.27 3.8 0 1 -0.7,0.66 q -3,1.03 -4.43,-1.98 A 0.58,1.15 32.8 0 1 8.42,42.03 Q 14.61,27.6 20.93,13.23 c 1.66,-3.79 4.45,-2.69 5.81,0.37 q 6.18,13.93 12.15,27.92 a 1.49,0.44 61.5 0 1 0.21,0.99 q -0.81,3.27 -4.05,2.5 A 1.47,0.99 1.2 0 1 34.11,44.35 L 31.09,37.61 A 1.43,1.05 74.6 0 0 30,36.75 H 17.25 a 0.67,0.93 15.8 0 0 -0.7,0.56 z m 3,-6.66 a 0.3,0.3 0 0 0 0.27,0.41 l 7.85,-0.01 a 0.3,0.3 0 0 0 0.27,-0.42 L 24,21.54 a 0.3,0.3 0 0 0 -0.55,0 z"
     id="path8088" />
  <path
     fill="#005192"
     d="M 67.24,42.89 C 60.55,45.29 47.03,47.11 43.26,39.47 41.51,35.93 42.41,25.04 42.4,20.66 42.37,8.7 60.1,9.99 67.03,13.32 A 0.83,0.68 15.5 0 1 67.51,14 l -0.09,5 a 0.43,0.3 15.8 0 1 -0.58,0.2 C 61.57,16.89 55.35,15.49 49.93,18.15 q -1.92,0.94 -1.93,3.1 l -0.01,13.51 q 0,2.3 2.08,3.23 6.06,2.73 12.4,0.36 A 0.56,0.81 76.1 0 0 63,37.75 V 31.5 a 0.49,0.77 0 0 0 -0.49,-0.77 l -5.27,0.06 q -2.99,0.03 -2.46,-3.05 c 0.67,-3.85 10.5,-2.5 13.4,-2.49 a 0.56,0.56 0 0 1 0.56,0.56 l 0.02,14.95 a 2.25,2.29 80.1 0 1 -1.52,2.13 z"
     id="path8090" />
  <path
     fill="#005192"
     d="m 101.05,35.01 c 0.02,12.54 -22.75,12.97 -26.42,3.75 -1.39,-3.5 -1.19,-19.32 0.69,-22.53 4.29,-7.28 18.05,-6.68 23.7,-1.15 q 1.9,1.87 1.93,4.53 0.09,7.8 0.1,15.4 z M 94.85,19.4 Q 87.77,13.97 80.48,19.21 a 1.99,1.7 74.9 0 0 -0.73,1.54 V 35.5 a 1.24,1.04 26 0 0 0.36,0.81 c 3.85,3.84 10.97,4.39 14.81,0.04 a 1.23,1.36 63.2 0 0 0.33,-0.85 v -15 a 0.88,1.52 9.9 0 0 -0.4,-1.1 z"
     id="path8092" />
  <path
     fill="#005192"
     d="m 145.61,37.53 c -1.15,2.63 -2.77,9.58 -6.89,6.98 q -1.73,-1.1 -0.93,-2.98 5.93,-13.91 12.07,-27.72 c 1.89,-4.25 4.45,-3.85 6.21,0.18 q 6.11,14.02 12.26,28.03 a 1.17,0.58 57.8 0 1 0.09,0.86 q -1.73,3.48 -5.01,1.55 a 1.2,0.15 66.7 0 1 -0.5,-0.86 l -2.79,-6.23 a 1.01,0.9 76.3 0 0 -0.87,-0.6 l -13.06,0.04 a 0.29,1.04 21.9 0 0 -0.58,0.75 z m 3.1,-6.88 a 0.33,0.33 0 0 0 0.3,0.46 l 7.87,0.01 a 0.33,0.33 0 0 0 0.3,-0.46 l -3.92,-9.15 a 0.33,0.33 0 0 0 -0.6,0 z"
     id="path8094" />
  <path
     fill="#005192"
     d="m 126.98,32.77 8.83,11.42 q 0.48,0.63 -0.25,0.62 l -6.06,-0.08 a 0.99,1.17 74.3 0 1 -0.85,-0.39 L 119.86,32.87 A 1.35,0.59 59.2 0 0 119,32.25 h -6 a 0.38,0.68 2.7 0 0 -0.4,0.64 c -0.18,2.83 0.59,8.79 -0.78,10.99 q -1.78,2.85 -4.74,-0.3 a 1.21,1.21 0 0 1 -0.33,-0.83 v -31 a 0.46,0.53 89.4 0 1 0.52,-0.46 q 9.42,-0.08 18.77,-0.03 c 10.52,0.06 10.36,19.36 1.52,20.98 a 0.3,0.6 74.4 0 0 -0.58,0.53 z M 113,16.92 a 0.49,0.58 0.5 0 0 -0.5,0.58 V 26 a 0.5,0.5 0 0 0 0.5,0.5 h 13.25 a 1,0.81 11.9 0 0 0.82,-0.42 q 2.6,-4.47 -0.12,-8.78 A 0.4,1.16 86.4 0 0 126,17.04 Z"
     id="path8096" />
  <path
     fill="#db0032"
     d="M 119.31,57.68 A 0.64,0.68 7.7 0 0 120.15,57 l -0.17,-5.75 a 1,0.36 88.6 0 1 0.33,-1 l 2.44,-0.11 a 0.91,0.46 89 0 1 0.48,0.91 q 0.08,7.98 -0.04,15.94 c -0.04,3.34 0.11,5.68 -3.48,7.01 q -4.75,1.76 -9.53,-0.69 -1.92,-0.98 -1.92,-3.07 l -0.02,-8.74 q 0,-2.15 2.26,-3.25 4.26,-2.08 8.81,-0.57 z m 0.7442,5.4282 a 2.69,2.69 0 0 0 -2.6474,-2.7319 l -3.2596,-0.0512 a 2.69,2.69 0 0 0 -2.7319,2.6474 l -0.0895,5.6993 a 2.69,2.69 0 0 0 2.6474,2.7319 l 3.2596,0.0512 a 2.69,2.69 0 0 0 2.7319,-2.6474 z"
     id="path8106" />
  <path
     fill="#db0032"
     d="m 34.36,58.63 a 0.65,0.45 39.9 0 0 0.57,0.05 q 6.52,-4.01 11.62,1.53 a 1.2,1.72 15.7 0 1 0.36,1.04 l 0.13,12.5 A 0.74,0.54 89.5 0 1 46.5,74.5 h -2.25 a 0.5,0.75 0 0 1 -0.5,-0.75 V 62.5 a 0.44,1.3 4.3 0 0 -0.26,-1.01 q -3.48,-2.68 -6.98,0.01 a 1.29,0.44 85.6 0 0 -0.26,1 v 11.25 a 0.5,0.76 0 0 1 -0.5,0.76 L 33.51,74.5 A 0.76,0.3 89.3 0 1 33.2,73.75 l -0.22,-11.5 a 0.79,1.26 9.6 0 0 -0.37,-0.89 q -3.35,-2.4 -6.7,0.06 a 1.05,1.03 71.7 0 0 -0.41,0.83 v 11.5 A 0.5,0.75 0 0 1 25,74.5 H 22.75 A 0.51,0.75 0 0 1 22.24,73.75 L 22.27,62 a 3.6,2.77 75.4 0 1 1.11,-2.62 q 5.17,-4.13 10.98,-0.75 z"
     id="path8108" />
  <path
     fill="#db0032"
     d="m 72.45,69.15 a 5.5,5.5 0 0 1 -5.5,5.5 h -3.96 a 5.5,5.5 0 0 1 -5.5,-5.5 v -6.52 a 5.5,5.5 0 0 1 5.5,-5.5 h 3.96 a 5.5,5.5 0 0 1 5.5,5.5 z m -3.2248,-6.1027 a 2.73,2.73 0 0 0 -2.7443,-2.7157 l -3.2399,0.017 a 2.73,2.73 0 0 0 -2.7157,2.7442 l 0.0295,5.6399 a 2.73,2.73 0 0 0 2.7443,2.7157 l 3.2399,-0.017 a 2.73,2.73 0 0 0 2.7157,-2.7442 z"
     id="path8110" />
  <path
     fill="#db0032"
     d="m 85.82,64.24 c 0.47,2.9 0.19,6.54 0.15,9.5 A 0.47,0.77 0.6 0 1 85.5,74.5 H 83.25 A 0.54,0.5 0 0 1 82.71,74 l 0.13,-13.25 a 0.5,1.36 50.3 0 1 0.48,-0.83 c 3.73,-3.95 14.49,-4.58 14.45,3.1 q -0.03,5.5 -0.03,10.91 A 0.49,0.57 0 0 1 97.25,74.5 H 95 A 0.5,0.5 0 0 1 94.5,74 V 62.25 a 1,0.95 19.8 0 0 -0.39,-0.77 c -2.46,-1.89 -9.09,-2.16 -8.29,2.76 z"
     id="path8112" />
  <path
     fill="#db0032"
     d="m 136.65,68.04 c -1.25,4.36 6.24,3.63 8.37,3 1.73,-0.51 3.34,-0.26 2.62,1.99 a 0.96,1.18 83.8 0 1 -0.65,0.66 q -5.35,2.12 -10.67,-0.01 -2.83,-1.13 -2.83,-4.17 v -7.53 q 0,-2.65 2.83,-3.86 6.25,-2.7 11.58,1.45 a 1.27,1.11 20.5 0 1 0.5,0.92 L 148.54,67 A 0.49,0.54 89.5 0 1 148,67.5 h -10.75 a 0.59,0.73 9.5 0 0 -0.6,0.54 z m 0.16,-3.95 A 0.15,0.21 84.9 0 0 137,64.2 l 7.76,0.17 A 0.65,0.53 7.6 0 0 145.37,64 c 1.61,-5.03 -10.11,-5.21 -8.56,0.09 z"
     id="path8114" />
</svg>

<?xml version="1.0" encoding="UTF-8" standalone="no"?>
<svg
   version="1.1"
   viewBox="0 0 178 84"
   id="svg8122"
   sodipodi:docname="agora-monde2.svg"
   inkscape:version="1.2.2 (732a01da63, 2022-12-09)"
   xmlns:inkscape="http://www.inkscape.org/namespaces/inkscape"
   xmlns:sodipodi="http://sodipodi.sourceforge.net/DTD/sodipodi-0.dtd"
   xmlns="http://www.w3.org/2000/svg"
   xmlns:svg="http://www.w3.org/2000/svg">
  <defs
     id="defs8126" />
  <sodipodi:namedview
     id="namedview8124"
     pagecolor="#ffffff"
     bordercolor="#000000"
     borderopacity="0.25"
     inkscape:showpageshadow="2"
     inkscape:pageopacity="0.0"
     inkscape:pagecheckerboard="0"
     inkscape:deskcolor="#d1d1d1"
     showgrid="false"
     inkscape:zoom="4.8067371"
     inkscape:cx="103.50056"
     inkscape:cy="68.445599"
     inkscape:window-width="1920"
     inkscape:window-height="1017"
     inkscape:window-x="3832"
     inkscape:window-y="-8"
     inkscape:window-maximized="1"
     inkscape:current-layer="svg8122" />
  <g
     id="g8326">
    <path
       fill="#005192"
       d="   M 16.55 37.31   L 13.46 44.20   A 1.27 1.18 -86.2 0 1 12.76 44.86   Q 9.76 45.89 8.33 42.88   A 1.15 0.58 -57.2 0 1 8.42 42.03   Q 14.61 27.60 20.93 13.23   C 22.59 9.44 25.38 10.54 26.74 13.60   Q 32.92 27.53 38.89 41.52   A 1.49 0.44 61.5 0 1 39.10 42.51   Q 38.29 45.78 35.05 45.01   A 1.47 0.99 1.2 0 1 34.11 44.35   L 31.09 37.61   A 1.43 1.05 74.6 0 0 30.00 36.75   L 17.25 36.75   A 0.93 0.67 -74.2 0 0 16.55 37.31   Z   M 19.55 30.65   A 0.30 0.30 -71.9 0 0 19.82 31.06   L 27.67 31.05   A 0.30 0.30 77.7 0 0 27.94 30.63   L 24.00 21.54   A 0.30 0.30 0.0 0 0 23.45 21.54   L 19.55 30.65   Z"
       id="path8088" />
    <path
       fill="#005192"
       d="   M 67.24 42.89   C 60.55 45.29 47.03 47.11 43.26 39.47   C 41.51 35.93 42.41 25.04 42.40 20.66   C 42.37 8.70 60.10 9.99 67.03 13.32   A 0.83 0.68 15.5 0 1 67.51 14.00   L 67.42 19.00   A 0.43 0.30 15.8 0 1 66.84 19.20   C 61.57 16.89 55.35 15.49 49.93 18.15   Q 48.01 19.09 48.00 21.25   L 47.99 34.76   Q 47.99 37.06 50.07 37.99   Q 56.13 40.72 62.47 38.35   A 0.81 0.56 -13.9 0 0 63.00 37.75   L 63.00 31.50   A 0.77 0.49 -90.0 0 0 62.51 30.73   L 57.24 30.79   Q 54.25 30.82 54.78 27.74   C 55.45 23.89 65.28 25.24 68.18 25.25   A 0.56 0.56 -89.6 0 1 68.74 25.81   L 68.76 40.76   A 2.29 2.25 -9.9 0 1 67.24 42.89   Z"
       id="path8090" />
    <path
       fill="#005192"
       d="   M 101.05 35.01   C 101.07 47.55 78.30 47.98 74.63 38.76   C 73.24 35.26 73.44 19.44 75.32 16.23   C 79.61 8.95 93.37 9.55 99.02 15.08   Q 100.92 16.95 100.95 19.61   Q 101.04 27.41 101.05 35.01   Z   M 94.85 19.40   Q 87.77 13.97 80.48 19.21   A 1.99 1.70 74.9 0 0 79.75 20.75   L 79.75 35.50   A 1.24 1.04 26.0 0 0 80.11 36.31   C 83.96 40.15 91.08 40.70 94.92 36.35   A 1.36 1.23 -26.8 0 0 95.25 35.50   L 95.25 20.50   A 1.52 0.88 -80.1 0 0 94.85 19.40   Z"
       id="path8092" />
    <path
       fill="#005192"
       d="   M 145.61 37.53   C 144.46 40.16 142.84 47.11 138.72 44.51   Q 136.99 43.41 137.79 41.53   Q 143.72 27.62 149.86 13.81   C 151.75 9.56 154.31 9.96 156.07 13.99   Q 162.18 28.01 168.33 42.02   A 1.17 0.58 57.8 0 1 168.42 42.88   Q 166.69 46.36 163.41 44.43   A 1.20 0.15 66.7 0 1 162.91 43.57   L 160.12 37.34   A 1.01 0.90 76.3 0 0 159.25 36.74   L 146.19 36.78   A 1.04 0.29 -68.1 0 0 145.61 37.53   Z   M 148.71 30.65   A 0.33 0.33 12.0 0 0 149.01 31.11   L 156.88 31.12   A 0.33 0.33 -11.6 0 0 157.18 30.66   L 153.26 21.51   A 0.33 0.33 43.7 0 0 152.66 21.51   L 148.71 30.65   Z"
       id="path8094" />
    <path
       fill="#005192"
       d="   M 126.98 32.77   L 135.81 44.19   Q 136.29 44.82 135.56 44.81   L 129.50 44.73   A 1.17 0.99 -15.7 0 1 128.65 44.34   L 119.86 32.87   A 1.35 0.59 59.2 0 0 119.00 32.25   L 113.00 32.25   A 0.68 0.38 -87.3 0 0 112.60 32.89   C 112.42 35.72 113.19 41.68 111.82 43.88   Q 110.04 46.73 107.08 43.58   A 1.21 1.21 23.4 0 1 106.75 42.75   L 106.75 11.75   A 0.53 0.46 -0.6 0 1 107.27 11.29   Q 116.69 11.21 126.04 11.26   C 136.56 11.32 136.40 30.62 127.56 32.24   A 0.60 0.30 -15.6 0 0 126.98 32.77   Z   M 113.00 16.92   A 0.58 0.49 -89.5 0 0 112.50 17.50   L 112.50 26.00   A 0.50 0.50 0.0 0 0 113.00 26.50   L 126.25 26.50   A 1.00 0.81 11.9 0 0 127.07 26.08   Q 129.67 21.61 126.95 17.30   A 1.16 0.40 -3.6 0 0 126.00 17.04   L 113.00 16.92   Z"
       id="path8096" />
  </g>
  <g
     id="g8333">
    <path
       fill="#db0032"
       d="   M 119.31 57.68   A 0.68 0.64 -82.3 0 0 120.15 57.00   L 119.98 51.25   A 1.00 0.36 88.6 0 1 120.31 50.25   L 122.75 50.14   A 0.91 0.46 89.0 0 1 123.23 51.05   Q 123.31 59.03 123.19 66.99   C 123.15 70.33 123.30 72.67 119.71 74.00   Q 114.96 75.76 110.18 73.31   Q 108.26 72.33 108.26 70.24   L 108.24 61.50   Q 108.24 59.35 110.50 58.25   Q 114.76 56.17 119.31 57.68   Z   M 120.0542 63.1082   A 2.69 2.69 0.0 0 0 117.4068 60.3763   L 114.1472 60.3251   A 2.69 2.69 0.0 0 0 111.4153 62.9725   L 111.3258 68.6718   A 2.69 2.69 0.0 0 0 113.9732 71.4037   L 117.2328 71.4549   A 2.69 2.69 0.0 0 0 119.9647 68.8075   L 120.0542 63.1082   Z"
       id="path8106" />
    <path
       fill="#db0032"
       d="   M 34.36 58.63   A 0.65 0.45 39.9 0 0 34.93 58.68   Q 41.45 54.67 46.55 60.21   A 1.72 1.20 -74.3 0 1 46.91 61.25   L 47.04 73.75   A 0.74 0.54 89.5 0 1 46.50 74.50   L 44.25 74.50   A 0.75 0.50 90.0 0 1 43.75 73.75   L 43.75 62.50   A 1.30 0.44 -85.7 0 0 43.49 61.49   Q 40.01 58.81 36.51 61.50   A 1.29 0.44 85.6 0 0 36.25 62.50   L 36.25 73.75   A 0.76 0.50 -90.0 0 1 35.75 74.51   L 33.51 74.50   A 0.76 0.30 89.3 0 1 33.20 73.75   L 32.98 62.25   A 1.26 0.79 -80.4 0 0 32.61 61.36   Q 29.26 58.96 25.91 61.42   A 1.05 1.03 71.7 0 0 25.50 62.25   L 25.50 73.75   A 0.75 0.50 -90.0 0 1 25.00 74.50   L 22.75 74.50   A 0.75 0.51 -90.0 0 1 22.24 73.75   L 22.27 62.00   A 3.60 2.77 75.4 0 1 23.38 59.38   Q 28.55 55.25 34.36 58.63   Z"
       id="path8108" />
    <path
       fill="#db0032"
       d="   M 72.45 69.15   A 5.50 5.50 0.0 0 1 66.95 74.65   L 62.99 74.65   A 5.50 5.50 0.0 0 1 57.49 69.15   L 57.49 62.63   A 5.50 5.50 0.0 0 1 62.99 57.13   L 66.95 57.13   A 5.50 5.50 0.0 0 1 72.45 62.63   L 72.45 69.15   Z   M 69.2252 63.0473   A 2.73 2.73 0.0 0 0 66.4809 60.3316   L 63.2410 60.3486   A 2.73 2.73 0.0 0 0 60.5253 63.0928   L 60.5548 68.7327   A 2.73 2.73 0.0 0 0 63.2991 71.4484   L 66.5390 71.4314   A 2.73 2.73 0.0 0 0 69.2547 68.6872   L 69.2252 63.0473   Z"
       id="path8110" />
    <path
       fill="#db0032"
       d="   M 85.82 64.24   C 86.29 67.14 86.01 70.78 85.97 73.74   A 0.77 0.47 -89.4 0 1 85.50 74.50   L 83.25 74.50   A 0.54 0.50 -0.0 0 1 82.71 74.00   L 82.84 60.75   A 1.36 0.50 -39.7 0 1 83.32 59.92   C 87.05 55.97 97.81 55.34 97.77 63.02   Q 97.74 68.52 97.74 73.93   A 0.57 0.49 90.0 0 1 97.25 74.50   L 95.00 74.50   A 0.50 0.50 0.0 0 1 94.50 74.00   L 94.50 62.25   A 1.00 0.95 19.8 0 0 94.11 61.48   C 91.65 59.59 85.02 59.32 85.82 64.24   Z"
       id="path8112" />
    <path
       fill="#db0032"
       d="   M 136.65 68.04   C 135.40 72.40 142.89 71.67 145.02 71.04   C 146.75 70.53 148.36 70.78 147.64 73.03   A 1.18 0.96 -6.2 0 1 146.99 73.69   Q 141.64 75.81 136.32 73.68   Q 133.49 72.55 133.49 69.51   L 133.49 61.98   Q 133.49 59.33 136.32 58.12   Q 142.57 55.42 147.90 59.57   A 1.27 1.11 20.5 0 1 148.40 60.49   L 148.54 67.00   A 0.54 0.49 -0.5 0 1 148.00 67.50   L 137.25 67.50   A 0.73 0.59 -80.5 0 0 136.65 68.04   Z   M 136.81 64.09   A 0.21 0.15 -5.1 0 0 137.00 64.20   L 144.76 64.37   A 0.65 0.53 7.6 0 0 145.37 64.00   C 146.98 58.97 135.26 58.79 136.81 64.09   Z"
       id="path8114" />
  </g>
</svg>
